storage/app/icons/phosphoricons/regular/barricade.svg

<svg xmlns="http://www.w3.org/2000/svg" fill="currentColor" viewBox="0 0 256 256"><path d="M224 64H32a16 16 0 0 0-16 16v72a16 16 0 0 0 16 16h24v32a8 8 0 0 0 16 0v-32h112v32a8 8 0 0 0 16 0v-32h24a16 16 0 0 0 16-16V80a16 16 0 0 0-16-16m0 64.69L175.31 80H224ZM80.69 80l72 72h-49.38L32 80.69V80ZM32 103.31 80.69 152H32ZM224 152h-48.69l-72-72h49.38L224 151.32z"/></svg>

<svg xmlns="http://www.w3.org/2000/svg" viewBox="0 0 256 256" fill="currentColor"><path d="M224,64H32A16,16,0,0,0,16,80v72a16,16,0,0,0,16,16H56v32a8,8,0,0,0,16,0V168H184v32a8,8,0,0,0,16,0V168h24a16,16,0,0,0,16-16V80A16,16,0,0,0,224,64Zm0,64.69L175.31,80H224ZM80.69,80l72,72H103.31L32,80.69V80ZM32,103.31,80.69,152H32ZM224,152H175.31l-72-72h49.38L224,151.32V152Z"/></svg>
